X: 31640
T: Paranoia
R: reel
M: 4/4
K: Dmajor
|:"D"[A2D2]>F2 Adcd "G"BGG/G/G Gdcd|"A7"Add/d/d fged cded cAGE|
"D"DA,DF Adcd "G"Bdd/d/d gdcd|"A7"Add/d/d fged cd"A/C#"ec "D"dAGE||
"D"D2FD Adcd "G"BGG/G/G GBdB|"A7"Add/d/d fged cded "A/C#"cAGE|
"D"DA,DF Adcd "G"Bdd/d/d gdcd|"A7"Add/d/d fged cd"A/C#"ec "D"dgfg||
"A7"eAA/A/A gceg cegc egce|"D"d2d/d/d gabg aff/f/f defd|
"A7"eAA/A/A gceg cegc e2ce|"D"d2d/d/d gabg aff/f/f defd||
"A7"eAA/A/A gceg cegc e2cd|"A7"cAdA e2ef "G"gceg "A7"cefg||
"D"aff/f/f gfed "A7"cdec Aefg|"D"aff/f/f gfed "A7"caaf gefg|
"D"aff/f/f gfed "A7"cdec A2de||"Bm"fBB/B/B gfed "A7"cdec A2de|
"Bm"fBB/B/B gfed "G"cded "A7"cAde|"Bm"fBB/B/B gfed "A7"cdec A2de|
"G"fBB/B/B gfed cded "A7"cAGE:|"D"D8||

